img/sprite/icon-fb.svg

<svg xmlns="http://www.w3.org/2000/svg" preserveAspectRatio="xMidYMid" width="28.219" height="28.219"><path d="M14.119 28.229C6.324 28.229.005 21.91.005 14.115.005 6.32 6.324.001 14.119.001c7.795 0 14.114 6.319 14.114 14.114 0 7.795-6.319 14.114-14.114 14.114zM17.635 5.46h-2.511c-2.963 0-3.672 1.39-3.672 3.905v1.978H9.753v2.778h1.699v8.357h3.363v-8.357h2.466l.257-2.778h-2.723l.004-1.67c0-.804.076-1.129 1.23-1.129h1.586V5.46z" opacity=".6" fill-rule="evenodd"/></svg>

<svg xmlns="http://www.w3.org/2000/svg" xmlns:xlink="http://www.w3.org/1999/xlink" preserveAspectRatio="xMidYMid" width="28.219" height="28.219" viewBox="0 0 28.219 28.219">
  <defs>
    <style>
      .cls-1 {
        fill: #000;
        opacity: 0.6;
        fill-rule: evenodd;
      }
    </style>
  </defs>
  <path d="M14.119,28.229 C6.324,28.229 0.005,21.910 0.005,14.115 C0.005,6.320 6.324,0.001 14.119,0.001 C21.914,0.001 28.233,6.320 28.233,14.115 C28.233,21.910 21.914,28.229 14.119,28.229 ZM17.635,5.460 L15.124,5.460 C12.161,5.460 11.452,6.850 11.452,9.365 L11.452,11.343 L9.753,11.343 L9.753,14.121 L11.452,14.121 L11.452,22.478 L14.815,22.478 L14.815,14.121 L17.281,14.121 L17.538,11.343 L14.815,11.343 L14.819,9.673 C14.819,8.869 14.895,8.544 16.049,8.544 L17.635,8.544 L17.635,5.460 Z" class="cls-1"/>
</svg>
